X: 1
T: Edmund MacKenzie Of Plockton
M: 6/8
L: 1/8
R: jig
K: Gmaj
|: GFE | D>EF GAB | d2 d B3 | c>dc A2 F | d>^cd B2 G |
DD/E/F GAB | d3 B3 | d^cd =c>AF | G3 :|
|: GB/c/d | e3 c3 | d^cd B3 | c>Bc DFA | d>^cd GB/=c/d |
e2 e c3 | d^cd B2 G | DF/G/A c>AF | G3 :|
